svg/u1f6b6_1f3fd_200d_2640.svg

<svg viewBox="0 0 128 128" xmlns="http://www.w3.org/2000/svg">
  <g id="hairGroup">
    <path id="hair_2_" d="M77.55,27c0.26-7.36,4.54-11.81-0.17-17.5c-3.11-3.75-9.3-2.18-10.39-0.74 c-2.11,2.79,1.49,5.3,2.32,6.69c1.22,2.05-1.03,10.41,2.66,16.39c5,8.08,10.12,6.82,10.12,6.82S77.3,34.08,77.55,27z" fill="#543930"/>
    <g id="hairHighlights">
      <radialGradient id="SVGID_1_" cx="70.3648" cy="106.4975" gradientTransform="matrix(0.9937 -0.1118 -0.1352 -1.2015 14.84 157.3262)" gradientUnits="userSpaceOnUse" r="13.5031">
        <stop offset="0.5264" stop-color="#6D4C41" stop-opacity="0"/>
        <stop offset="1" stop-color="#6D4C41"/>
      </radialGradient>
      <path d="M77.95,23.57c1.03-5.43,3.36-9.32-0.57-14.07c-3.11-3.75-9.3-2.18-10.39-0.74 c-2.11,2.79,1.49,5.3,2.32,6.69C70.54,17.5,77.95,23.57,77.95,23.57z" fill="url(#SVGID_1_)"/>
      <radialGradient id="SVGID_2_" cx="82.7278" cy="95.9522" gradientTransform="matrix(-0.9855 0.1697 0.2093 1.2158 144.1737 -98.6463)" gradientUnits="userSpaceOnUse" r="14.4403">
        <stop offset="0" stop-color="#6D4C41"/>
        <stop offset="0.5264" stop-color="#6D4C41" stop-opacity="0"/>
      </radialGradient>
      <path d="M77.55,27c0.07-1.84,0.4-3.64,0.84-5.43c0.39-1.58,0.79-2.93-0.23-4.39 c-1.62-2.29-4.85-3.29-7.48-2.32c-0.79,0.29-1.28,0.7-1.17,1.51c0.08,0.59,0.2,1.12,0.21,1.73c0.02,1.38-0.03,2.75-0.01,4.13 c0.06,3.3,0.49,6.73,2.25,9.59c5,8.08,10.12,6.82,10.12,6.82S77.3,34.08,77.55,27z" fill="url(#SVGID_2_)"/>
      <radialGradient id="SVGID_3_" cx="76.5917" cy="104.4668" gradientTransform="matrix(-0.9849 0.1729 0.5515 3.1415 94.4169 -317.8935)" gradientUnits="userSpaceOnUse" r="7.9187">
        <stop offset="0.5264" stop-color="#6D4C41" stop-opacity="0"/>
        <stop offset="1" stop-color="#6D4C41"/>
      </radialGradient>
      <path d="M77.35,37.53c0,0-5.82-3.48-7.14-10.29c-0.53-2.72-0.57-5.02-0.5-6.57 c0.06-1.34,0.9-5.74-0.21-7.24" fill="url(#SVGID_3_)"/>
    </g>
  </g>
  <g id="head_1_">
    <path d="M67.17,13.34c-2.51-4.06-8.2-7.22-12.91-6.44c-5.28,0.87-8.11,4.67-8.86,9.49 c-0.27,1.75-0.22,3.49,0.08,4.72c0.04,0.15,0.33,1.22,0.35,1.56c0.2,1.3-2.32,2.59-2.61,4.02c-0.22,1.08,2.03,1.77,2.21,1.96 c0.88,0.97-0.51,5.58,5.66,6.04c2.37,0.18,1.91,0.03,2.61,0.3c1.09,0.42,0.99,3.32,0.99,3.32s0.61,4.78,4.69,3.51 c4.66-1.44,4.84-4.74,4.84-4.74s-1.73-4.6,1.05-9.38C67.48,23.88,68.79,15.95,67.17,13.34z" fill="#BA8D68"/>
  </g>
  <path id="mouth_2_" d="M46.05,31.23c0.86,0.05,1.7-0.15,2.43-0.69c0.79-0.59,0.25-1.24-0.66-0.86 c-0.55,0.23-1.32,0.35-2.02,0.22L46.05,31.23z" fill="#5D4037"/>
  <ellipse id="eye_2_" cx="49.65" cy="23.39" fill="#49362E" rx="1.13" ry="1.74" transform="matrix(0.9995 -0.0315 0.0315 0.9995 -0.7121 1.5755)"/>
  <path id="eyebrow_2_" d="M48.77,20.82c-1.12,0.26-1.34-0.48-0.94-1.04c0.29-0.42,0.98-0.74,2.25-0.42 c1.2,0.3,1.66,1.03,1.97,1.47s0.24,0.86-0.04,0.89C51.63,21.74,50.15,20.5,48.77,20.82z" fill="#613E31"/>
  <g id="pants_x5F_back_2_">
    <path d="M85.26,108.68L71.19,92.63c-0.88-1-1.4-2.26-1.48-3.59l-1.38-22.46l-15.5,1.71l4.88,23.17 c0.79,3.75,2.9,7.09,5.94,9.42l16.49,12.6L85.26,108.68z" fill="#616161"/>
  </g>
  <g id="pants_x5F_front_2_">
    <path d="M68.15,62.88l-17.58,1.61l-4.53,20.39c-0.83,3.76-1.12,7.63-0.85,11.47l1.63,23.24h6.67l2.95-25.03 c0,0,5.01-13.32,5.17-13.4c4.07-1.93,7.59-4.92,7.41-9.83C68.93,68.51,68.47,65.67,68.15,62.88z" fill="#7C7C7C"/>
  </g>
  <g id="shirt_x5F_fill_4_">
    <linearGradient id="SVGID_4_" gradientTransform="matrix(1 0 0 -1 0 128)" gradientUnits="userSpaceOnUse" x1="51.8724" x2="69.1224" y1="77.6397" y2="65.6397">
      <stop offset="0" stop-color="#651FFF"/>
      <stop offset="0.7047" stop-color="#5914F2"/>
      <stop offset="1" stop-color="#530EEB"/>
    </linearGradient>
    <path d="M64.89,73.51H52.99c-2.27,0-4.12-2.18-4.12-4.86l2.15-22.5c0.44-4.11,2.53-8.09,4.63-9.59 c1.97-1.41,4.82-1.64,4.82-1.64c1.53-0.12,3.8,0.25,5.25,2.37c0.87,1.27,1.52,3.75,1.66,5.88L69,68.65 C69,71.34,67.16,73.51,64.89,73.51z" fill="url(#SVGID_4_)"/>
  </g>
  <g id="arm_1_">
    <linearGradient id="SVGID_5_" gradientTransform="matrix(1 0 0 -1 0 128)" gradientUnits="userSpaceOnUse" x1="59.1987" x2="56.0045" y1="57.6172" y2="76.3419">
      <stop offset="0.4606" stop-color="#BA8D68"/>
      <stop offset="0.9996" stop-color="#A47B62"/>
    </linearGradient>
    <path d="M66.8,60.29l-2.25-13.83l-6.97,1.13l2.15,13.19l-3.57,9.84c-0.23,0.45-3.46,1.91-3.66,2.01 c-0.62,0.3-1.05,0.89-1.37,2.06c-0.19,0.72-0.67,2.78,0.34,3.14c-0.34,0.95-0.12,2.14,0.14,2.42c0.6,0.65,1.33,0.36,1.33,0.36 s0.1,0.83,0.76,1.06c0.82,0.29,1.39-0.16,1.39-0.16c0.29,0.22,0.64,0.34,1.01,0.34c0.44,0,0.83-0.17,1.13-0.39 c0.19,0.08,0.71,0.39,1.37-0.08c0.42-0.3,1.74-2.03,2.15-3.14c0.28-0.76,0.24-4.58,0.59-5.25c0.35-0.67,5.14-10.2,5.14-10.2 l-0.01,0C66.9,62,67,61.11,66.8,60.29z" fill="url(#SVGID_5_)"/>
  </g>
  <g id="hand">
    <linearGradient id="SVGID_6_" gradientTransform="matrix(1 0 0 -1 0 128)" gradientUnits="userSpaceOnUse" x1="53.3336" x2="55.5812" y1="44.8394" y2="50.6919">
      <stop offset="0.4561" stop-color="#BA8D68"/>
      <stop offset="1" stop-color="#A47B62"/>
    </linearGradient>
    <path d="M58.88,78.7c-0.23-0.6-0.38-0.64-0.8-0.53c-0.57,0.15-1.19,0.13-1.54-0.57 c-0.08-0.17-0.2-0.23-0.38-0.17c-0.61,0.2-1.37,0.21-1.63-0.71c-0.1-0.34-0.24-0.38-0.61-0.38c-0.12,0-0.47,0.15-0.83-0.23 c-0.4-0.43,0.14-1.29-0.37-1.37c-0.15-0.02-0.87,0.06-1.09-0.71c-0.14-0.5,0.44-1.1,0.45-1.11c-0.4,0.35-0.71,0.9-0.94,1.78 c-0.19,0.72-0.67,2.78,0.34,3.14c-0.34,0.95-0.12,2.14,0.14,2.42c0.6,0.65,1.33,0.36,1.33,0.36s0.1,0.83,0.76,1.06 c0.82,0.29,1.39-0.16,1.39-0.16c0.29,0.22,0.64,0.34,1.01,0.34c0.44,0,0.83-0.17,1.13-0.39c0.19,0.08,0.71,0.39,1.37-0.08 c0.35-0.25,1.34-1.52,1.89-2.58C60.01,79.2,59.05,79.15,58.88,78.7z" fill="url(#SVGID_6_)"/>
  </g>
  <g id="shoe_x5F_front_2_">
    <path d="M54.6,123.98c0.63,0,1.15-0.51,1.15-1.15l0-2.8c0-1.9-1.93-4.07-1.93-4.07h-6.98l-6.28,2.07 c-1.52,0.6-2.53,2.06-2.54,3.69l-0.01,1.26c0,0.55,0.45,1,1,1L54.6,123.98z" fill="#4568AD"/>
  </g>
  <g id="shoe_x5F_back_2_">
    <path d="M89.65,111.84c0.45-0.45,0.45-1.17,0-1.62l-1.98-1.98c-1.35-1.35-4.24-1.52-4.24-1.52l-4.93,4.93 l-2.97,5.91c-0.65,1.5-0.33,3.24,0.82,4.41l0.89,0.9c0.39,0.39,1.03,0.39,1.42,0L89.65,111.84z" fill="#325599"/>
  </g>
  <path id="tone_3_" d="M58.37,79.39c0.07,0.49-0.06,0.86-0.24,1.22c-0.2,0.34-0.44,0.65-0.89,0.86 c-0.07-0.49,0.06-0.86,0.24-1.22C57.67,79.91,57.92,79.6,58.37,79.39z" fill="#91674D"/>
  <path id="tone_2_" d="M56.35,78.48c0.07,0.63-0.07,1.19-0.27,1.72c-0.22,0.52-0.48,1.03-0.97,1.44 c-0.07-0.64,0.07-1.19,0.27-1.72C55.6,79.41,55.87,78.9,56.35,78.48z" fill="#91674D"/>
  <path id="tone_1_" d="M53.95,77.48c0.12,0.62,0.02,1.18-0.13,1.72c-0.17,0.53-0.4,1.05-0.85,1.5 c-0.12-0.62-0.02-1.18,0.13-1.72C53.28,78.45,53.51,77.93,53.95,77.48z" fill="#91674D"/>
  <path id="tone" d="M53.8,73.88c-0.31,0.27-0.61,0.55-0.86,0.85c-0.27,0.3-0.4,0.57-0.49,0.96 c-0.23,0.74-0.46,1.51-1,2.22c-0.16-0.87,0-1.69,0.33-2.47c0.17-0.38,0.5-0.82,0.86-1.04C53.01,74.15,53.4,73.98,53.8,73.88z" fill="#91674D"/>
  <g id="shirt_x5F_sleeve_10_">
    <g id="shirt_x5F_sleeve_11_">
      <path d="M56.4,53l10.9-1.98l-1.76-9.69c-0.55-3.01-3.43-5.01-6.44-4.46l0,0c-3.01,0.55-5.01,3.43-4.46,6.44 L56.4,53z" fill="#3615AF"/>
    </g>
  </g>
  <g id="hairGroup_1_">
    <path id="hair_3_" d="M67.68,10.2c-2.33-2.83-6.11-4.64-10.13-4.83c-3.49-0.17-8.28,0.69-11.22,3.6 c-1.77,1.75-2.82,4.05-2.53,6.6c0.17,1.54,1.44,2.32,1.44,2.32s1.45-3.5,5.02-2.61c3.75,0.93,5.38,0.17,5.38,0.17 c-1.26,2.98-0.15,4.61,0.83,5.54c0.56,0.53,1.08,1.16,1.37,1.53c0.15,0.19,0.28,0.18,0.34-0.02c0.15-0.48,0.42-1.35,0.63-1.75 c0.69-1.37,1.81-0.88,1.81-0.88c1.51,0.53,2.05,3.64-0.43,5.47c-0.06,0.04-0.23,0.16-0.13,0.47c0.98,3.15,4.71,3.26,4.94,3.15 c0,0,0.01,0,0.01-0.01c0.02-0.01,0.04-0.02,0.05-0.03c0.5-0.23,0.79-0.64,0.88-1.22c0.31-2.09,1.22-2.7,1.88-3.61 c0.76-1.05,1.62-2.24,2.11-5.53C70.39,15.44,69.61,12.55,67.68,10.2z" fill="#543930"/>
    <radialGradient id="hairHighlights_2_" cx="56.9014" cy="110.8418" gradientTransform="matrix(1 0 0 -1 0 128)" gradientUnits="userSpaceOnUse" r="12.5013">
      <stop offset="0.5264" stop-color="#6D4C41" stop-opacity="0"/>
      <stop offset="1" stop-color="#6D4C41"/>
    </radialGradient>
    <path id="hairHighlights_1_" d="M67.68,10.2c-2.33-2.83-6.11-4.64-10.13-4.83 c-3.49-0.17-8.28,0.69-11.22,3.6c-1.77,1.75-2.82,4.05-2.53,6.6c0.17,1.54,1.44,2.32,1.44,2.32s1.45-3.5,5.02-2.61 c3.75,0.93,5.38,0.17,5.38,0.17c-1.26,2.98-0.15,4.61,0.83,5.54c0.56,0.53,1.08,1.16,1.37,1.53c0.15,0.19,0.28,0.18,0.34-0.02 c0.15-0.48,0.42-1.35,0.63-1.75c0.69-1.37,1.81-0.88,1.81-0.88c1.51,0.53,2.05,3.64-0.43,5.47c-0.06,0.04-0.23,0.16-0.13,0.47 c0.98,3.15,4.71,3.26,4.94,3.15c0,0,0.01,0,0.01-0.01c0.02-0.01,0.04-0.02,0.05-0.03c0.5-0.23,0.79-0.64,0.88-1.22 c0.31-2.09,1.22-2.7,1.88-3.61c0.76-1.05,1.62-2.24,2.11-5.53C70.39,15.44,69.61,12.55,67.68,10.2z" fill="url(#hairHighlights_2_)"/>
  </g>
</svg>

<svg viewBox="0 0 128 128" xmlns="http://www.w3.org/2000/svg">
  <defs>
    <linearGradient id="SVGID_4_" gradientTransform="matrix(1 0 0 -1 0 0)" gradientUnits="userSpaceOnUse" x1="51.8724" x2="69.1224" y1="-50.3603" y2="-62.3603">
      <stop offset="0" stop-color="#651FFF"/>
      <stop offset="0.7047" stop-color="#5914F2"/>
      <stop offset="1" stop-color="#530EEB"/>
    </linearGradient>
    <linearGradient id="SVGID_5_" gradientTransform="matrix(1 0 0 -1 0 0)" gradientUnits="userSpaceOnUse" x1="59.1987" x2="56.0045" y1="-70.3828" y2="-51.6581">
      <stop offset="0.4606" stop-color="#BA8D68"/>
      <stop offset="0.9996" stop-color="#A47B62"/>
    </linearGradient>
    <linearGradient id="SVGID_6_" gradientTransform="matrix(1 0 0 -1 0 0)" gradientUnits="userSpaceOnUse" x1="53.3336" x2="55.5812" y1="-83.1606" y2="-77.3081">
      <stop offset="0.4561" stop-color="#BA8D68"/>
      <stop offset="1" stop-color="#A47B62"/>
    </linearGradient>
    <radialGradient id="hairHighlights_2_" cx="56.9014" cy="-17.1582" gradientTransform="matrix(1 0 0 -1 0 0)" gradientUnits="userSpaceOnUse" r="12.5013">
      <stop offset="0.5264" stop-color="#6D4C41" stop-opacity="0"/>
      <stop offset="1" stop-color="#6D4C41"/>
    </radialGradient>
    <radialGradient id="SVGID_1_" cx="67.519381" cy="-24.179223" gradientTransform="matrix(0.9937 -0.1118 -0.1352 -1.2015 0 0)" gradientUnits="userSpaceOnUse" r="13.5031">
      <stop offset="0.5264" stop-color="#6D4C41" stop-opacity="0"/>
      <stop offset="1" stop-color="#6D4C41"/>
    </radialGradient>
    <radialGradient id="SVGID_2_" cx="-76.091025" cy="36.983007" gradientTransform="matrix(-0.9855 0.1697 0.2093 1.2158 0 0)" gradientUnits="userSpaceOnUse" r="14.4403">
      <stop offset="0" stop-color="#6D4C41"/>
      <stop offset="0.5264" stop-color="#6D4C41" stop-opacity="0"/>
    </radialGradient>
    <radialGradient id="SVGID_3_" cx="-71.375422" cy="11.418898" gradientTransform="matrix(-0.9849 0.1729 0.5515 3.1415 0 0)" gradientUnits="userSpaceOnUse" r="7.9187">
      <stop offset="0.5264" stop-color="#6D4C41" stop-opacity="0"/>
      <stop offset="1" stop-color="#6D4C41"/>
    </radialGradient>
  </defs>
  <path id="hair_2_" d="M77.55,27 C77.81,19.64 82.09,15.19 77.38,9.5 C74.27,5.75 68.08,7.32 66.99,8.76 C64.88,11.55 68.48,14.06 69.31,15.45 C70.53,17.5 68.28,25.86 71.97,31.84 C76.97,39.92 82.09,38.66 82.09,38.66 C82.09,38.66 77.3,34.08 77.55,27 Z" fill="#543930"/>
  <path d="M77.95,23.57 C78.98,18.14 81.31,14.25 77.38,9.5 C74.27,5.75 68.08,7.32 66.99,8.76 C64.88,11.55 68.48,14.06 69.31,15.45 C70.54,17.5 77.95,23.57 77.95,23.57 Z" fill="url(#SVGID_1_)"/>
  <path d="M77.55,27 C77.62,25.16 77.95,23.36 78.39,21.57 C78.78,19.99 79.18,18.64 78.16,17.18 C76.54,14.89 73.31,13.89 70.68,14.86 C69.89,15.15 69.4,15.56 69.51,16.37 C69.59,16.96 69.71,17.49 69.72,18.1 C69.74,19.48 69.69,20.85 69.71,22.23 C69.77,25.53 70.2,28.96 71.96,31.82 C76.96,39.9 82.08,38.64 82.08,38.64 C82.08,38.64 77.3,34.08 77.55,27 Z" fill="url(#SVGID_2_)"/>
  <path d="M77.35,37.53 C77.35,37.53 71.53,34.05 70.21,27.24 C69.68,24.52 69.64,22.22 69.71,20.67 C69.77,19.33 70.61,14.93 69.5,13.43" fill="url(#SVGID_3_)"/>
  <path d="M67.17,13.34 C64.66,9.28 58.97,6.12 54.26,6.9 C48.98,7.77 46.15,11.57 45.4,16.39 C45.13,18.14 45.18,19.88 45.48,21.11 C45.52,21.26 45.81,22.33 45.83,22.67 C46.03,23.97 43.51,25.26 43.22,26.69 C43,27.77 45.25,28.46 45.43,28.65 C46.31,29.62 44.92,34.23 51.09,34.69 C53.46,34.87 53,34.72 53.7,34.99 C54.79,35.41 54.69,38.31 54.69,38.31 C54.69,38.31 55.3,43.09 59.38,41.82 C64.04,40.38 64.22,37.08 64.22,37.08 C64.22,37.08 62.49,32.48 65.27,27.7 C67.48,23.88 68.79,15.95 67.17,13.34 Z" fill="#BA8D68"/>
  <path id="mouth_2_" d="M46.05,31.23 C46.91,31.28 47.75,31.08 48.48,30.54 C49.27,29.95 48.73,29.3 47.82,29.68 C47.27,29.91 46.5,30.03 45.8,29.9 L46.05,31.23 Z" fill="#5D4037"/>
  <path id="eye_2_" d="M50.779,23.354 C50.81,24.315 50.328,25.109 49.705,25.129 C49.081,25.149 48.551,24.386 48.52,23.425 C48.49,22.465 48.971,21.67 49.595,21.651 C50.219,21.631 50.749,22.394 50.779,23.354 Z" fill="#49362E"/>
  <path id="eyebrow_2_" d="M48.77,20.82 C47.65,21.08 47.43,20.34 47.83,19.78 C48.12,19.36 48.81,19.04 50.08,19.36 C51.28,19.66 51.74,20.39 52.05,20.83 C52.36,21.27 52.29,21.69 52.01,21.72 C51.63,21.74 50.15,20.5 48.77,20.82 Z" fill="#613E31"/>
  <path d="M85.26,108.68 L71.19,92.63 C70.31,91.63 69.79,90.37 69.71,89.04 L68.33,66.58 L52.83,68.29 L57.71,91.46 C58.5,95.21 60.61,98.55 63.65,100.88 L80.14,113.48 L85.26,108.68 Z" fill="#616161"/>
  <path d="M68.15,62.88 L50.57,64.49 L46.04,84.88 C45.21,88.64 44.92,92.51 45.19,96.35 L46.82,119.59 L53.49,119.59 L56.44,94.56 C56.44,94.56 61.45,81.24 61.61,81.16 C65.68,79.23 69.2,76.24 69.02,71.33 C68.93,68.51 68.47,65.67 68.15,62.88 Z" fill="#7C7C7C"/>
  <path d="M64.89,73.51 L52.99,73.51 C50.72,73.51 48.87,71.33 48.87,68.65 L51.02,46.15 C51.46,42.04 53.55,38.06 55.65,36.56 C57.62,35.15 60.47,34.92 60.47,34.92 C62,34.8 64.27,35.17 65.72,37.29 C66.59,38.56 67.24,41.04 67.38,43.17 L69,68.65 C69,71.34 67.16,73.51 64.89,73.51 Z" fill="url(#SVGID_4_)"/>
  <path d="M66.8,60.29 L64.55,46.46 L57.58,47.59 L59.73,60.78 L56.16,70.62 C55.93,71.07 52.7,72.53 52.5,72.63 C51.88,72.93 51.45,73.52 51.13,74.69 C50.94,75.41 50.46,77.47 51.47,77.83 C51.13,78.78 51.35,79.97 51.61,80.25 C52.21,80.9 52.94,80.61 52.94,80.61 C52.94,80.61 53.04,81.44 53.7,81.67 C54.52,81.96 55.09,81.51 55.09,81.51 C55.38,81.73 55.73,81.85 56.1,81.85 C56.54,81.85 56.93,81.68 57.23,81.46 C57.42,81.54 57.94,81.85 58.6,81.38 C59.02,81.08 60.34,79.35 60.75,78.24 C61.03,77.48 60.99,73.66 61.34,72.99 C61.69,72.32 66.48,62.79 66.48,62.79 L66.47,62.79 C66.9,62 67,61.11 66.8,60.29 Z" fill="url(#SVGID_5_)"/>
  <path d="M58.88,78.7 C58.65,78.1 58.5,78.06 58.08,78.17 C57.51,78.32 56.89,78.3 56.54,77.6 C56.46,77.43 56.34,77.37 56.16,77.43 C55.55,77.63 54.79,77.64 54.53,76.72 C54.43,76.38 54.29,76.34 53.92,76.34 C53.8,76.34 53.45,76.49 53.09,76.11 C52.69,75.68 53.23,74.82 52.72,74.74 C52.57,74.72 51.85,74.8 51.63,74.03 C51.49,73.53 52.07,72.93 52.08,72.92 C51.68,73.27 51.37,73.82 51.14,74.7 C50.95,75.42 50.47,77.48 51.48,77.84 C51.14,78.79 51.36,79.98 51.62,80.26 C52.22,80.91 52.95,80.62 52.95,80.62 C52.95,80.62 53.05,81.45 53.71,81.68 C54.53,81.97 55.1,81.52 55.1,81.52 C55.39,81.74 55.74,81.86 56.11,81.86 C56.55,81.86 56.94,81.69 57.24,81.47 C57.43,81.55 57.95,81.86 58.61,81.39 C58.96,81.14 59.95,79.87 60.5,78.81 C60.01,79.2 59.05,79.15 58.88,78.7 Z" fill="url(#SVGID_6_)"/>
  <path d="M54.6,123.98 C55.23,123.98 55.75,123.47 55.75,122.83 L55.75,120.03 C55.75,118.13 53.82,115.96 53.82,115.96 L46.84,115.96 L40.56,118.03 C39.04,118.63 38.03,120.09 38.02,121.72 L38.01,122.98 C38.01,123.53 38.46,123.98 39.01,123.98 L54.6,123.98 Z" fill="#4568AD"/>
  <path d="M89.65,111.84 C90.1,111.39 90.1,110.67 89.65,110.22 L87.67,108.24 C86.32,106.89 83.43,106.72 83.43,106.72 L78.5,111.65 L75.53,117.56 C74.88,119.06 75.2,120.8 76.35,121.97 L77.24,122.87 C77.63,123.26 78.27,123.26 78.66,122.87 L89.65,111.84 Z" fill="#325599"/>
  <path id="tone_3_" d="M58.37,79.39 C58.44,79.88 58.31,80.25 58.13,80.61 C57.93,80.95 57.69,81.26 57.24,81.47 C57.17,80.98 57.3,80.61 57.48,80.25 C57.67,79.91 57.92,79.6 58.37,79.39 Z" fill="#91674D"/>
  <path id="tone_2_" d="M56.35,78.48 C56.42,79.11 56.28,79.67 56.08,80.2 C55.86,80.72 55.6,81.23 55.11,81.64 C55.04,81 55.18,80.45 55.38,79.92 C55.6,79.41 55.87,78.9 56.35,78.48 Z" fill="#91674D"/>
  <path id="tone_1_" d="M53.95,77.48 C54.07,78.1 53.97,78.66 53.82,79.2 C53.65,79.73 53.42,80.25 52.97,80.7 C52.85,80.08 52.95,79.52 53.1,78.98 C53.28,78.45 53.51,77.93 53.95,77.48 Z" fill="#91674D"/>
  <path id="tone" d="M53.8,73.88 C53.49,74.15 53.19,74.43 52.94,74.73 C52.67,75.03 52.54,75.3 52.45,75.69 C52.22,76.43 51.99,77.2 51.45,77.91 C51.29,77.04 51.45,76.22 51.78,75.44 C51.95,75.06 52.28,74.62 52.64,74.4 C53.01,74.15 53.4,73.98 53.8,73.88 Z" fill="#91674D"/>
  <path d="M56.4,53 L67.3,51.02 L65.54,41.33 C64.99,38.32 62.11,36.32 59.1,36.87 L59.1,36.87 C56.09,37.42 54.09,40.3 54.64,43.31 L56.4,53 Z" fill="#3615AF"/>
  <path id="hair_3_" d="M67.68,10.2 C65.35,7.37 61.57,5.56 57.55,5.37 C54.06,5.2 49.27,6.06 46.33,8.97 C44.56,10.72 43.51,13.02 43.8,15.57 C43.97,17.11 45.24,17.89 45.24,17.89 C45.24,17.89 46.69,14.39 50.26,15.28 C54.01,16.21 55.64,15.45 55.64,15.45 C54.38,18.43 55.49,20.06 56.47,20.99 C57.03,21.52 57.55,22.15 57.84,22.52 C57.99,22.71 58.12,22.7 58.18,22.5 C58.33,22.02 58.6,21.15 58.81,20.75 C59.5,19.38 60.62,19.87 60.62,19.87 C62.13,20.4 62.67,23.51 60.19,25.34 C60.13,25.38 59.96,25.5 60.06,25.81 C61.04,28.96 64.77,29.07 65,28.96 C65,28.96 65.01,28.96 65.01,28.95 C65.03,28.94 65.05,28.93 65.06,28.92 C65.56,28.69 65.85,28.28 65.94,27.7 C66.25,25.61 67.16,25 67.82,24.09 C68.58,23.04 69.44,21.85 69.93,18.56 C70.39,15.44 69.61,12.55 67.68,10.2 Z" fill="#543930"/>
  <path id="hairHighlights_1_" d="M67.68,10.2 C65.35,7.37 61.57,5.56 57.55,5.37 C54.06,5.2 49.27,6.06 46.33,8.97 C44.56,10.72 43.51,13.02 43.8,15.57 C43.97,17.11 45.24,17.89 45.24,17.89 C45.24,17.89 46.69,14.39 50.26,15.28 C54.01,16.21 55.64,15.45 55.64,15.45 C54.38,18.43 55.49,20.06 56.47,20.99 C57.03,21.52 57.55,22.15 57.84,22.52 C57.99,22.71 58.12,22.7 58.18,22.5 C58.33,22.02 58.6,21.15 58.81,20.75 C59.5,19.38 60.62,19.87 60.62,19.87 C62.13,20.4 62.67,23.51 60.19,25.34 C60.13,25.38 59.96,25.5 60.06,25.81 C61.04,28.96 64.77,29.07 65,28.96 C65,28.96 65.01,28.96 65.01,28.95 C65.03,28.94 65.05,28.93 65.06,28.92 C65.56,28.69 65.85,28.28 65.94,27.7 C66.25,25.61 67.16,25 67.82,24.09 C68.58,23.04 69.44,21.85 69.93,18.56 C70.39,15.44 69.61,12.55 67.68,10.2 Z" fill="url(#hairHighlights_2_)"/>
</svg>
